X:5
T:Girle I Left Behind Me,The. WHG.005
R:march
S:W.H.Giles MS,Bampton,Oxfordshire,1839p6
O:England
H:donated by Mrs W.R.Kettlewell to VWML,Apr 1927.
A:Bampton, Oxfordshire
N:No rest at start of B music in the MS.
Z:PJHeadford – VMP 2009
M:C|
L:1/8
Q:1/2=100
K:G
g2|e2dc B2A2|B2G2 E2F2|G2G2 GA Bc|d4 B2g2|
e2d2 c2B2|B2G2 E2G2|F2A2 D2F2|G4 G2:|
|:z2|B2d2 e2f2|g2d2 B2G2|B2d2 e2f2|g4 f2g2|
e2dc B2A2|B2G2 E2G2|F2A2 D2EF|G4 G2:|

